X:214
T: GESTERN ABEND WAR VETTER MICHEL HIER
N: B0701
O: Europa, Mitteleuropa, Deutschland
R: Scherz - Lied
M: 4/4
L: 1/16
K: F
F3G | A4F4F4G2A2 | B4G4G4
c2B2 | A4F4F4E3F | G2F2E2D2C4
F3G | A4F4F4G3A | B4G4G4
c3B | A4F4G2F2G2A2 | F4z8
A3B | c4c4c4_e4 | d4B4B4
B3c | d4d4d4f4 | e4d4c4
F3G | A4F4F4G3A | B4G4G4
c3B | A4A4G2F2G2A2 | F4z8

